X: 8847
T: Cuimhní An Teach A Raibh Sí Ina Chónaí Ann
R: reel
M: 4/4
K: Amixolydian
|:"A" cdcB cB A2|FGAG FEDA,|"G" DEFG AFBF|DA,DE GAcd|
"A" eFAB dEFA|"A7" cDEF BAFE|"Bm" DB,DG AFED|1 B,DEF GFAB:|2 FGAB A2 GA||
"G" BFGA AEFG|GDEF FEDB,|"D" A,B,DF GAFG|FA,B,D FGB=c|
"G" BFGA AEFG|GDEF FEDB,|"D" A,B,DG AFED|FGAB ABcB|
"A" AFGA AEFG|GDEF FEDB,|"G" A,B,DF GAFG|DA,DE GAcd|
"A" eFAB dEFA|"A7" cDEF BAFE|"Bm" DB,DG AFED|B,DEF GFAB||

